X: 2568
T: Ballykett Courthouse
R: reel
M: 4/4
K: Gmajor
d3e dBAG|EAAG A2 Bc|d3e dBAG|EGGF GABc|
d3e dBAG|EAAG A2 Bc|d3e dBAG|EGGF GABd||
g2 fg edBd|eaag agef|g2 fg edBd|egfa g3f|
g2 fg edBd|eaag agef|g2 fg edBd|(3efg fa gedB||

